lib/brands/icons/audible.svg

<svg xmlns="http://www.w3.org/2000/svg" fill="none" aria-hidden="true" viewBox="0 0 48 48"><g id="audible-Icon"><g id="Group"><path id="Vector" fill="#F0A749" d="M16.7511 14.5947C21.4599 12.3762 27.1653 12.5073 31.8365 14.7704C35.0675 16.3055 37.7839 18.8685 39.52 21.9966C38.4391 22.542 37.3539 23.075 36.2711 23.6124C34.5474 20.5021 31.7815 17.9941 28.5074 16.6025C24.1936 14.718 19.0429 14.7734 14.829 16.9113C12.4724 18.047 10.5176 19.8508 8.90234 21.8863C10.7062 18.7379 13.4468 16.1175 16.7511 14.5947V14.5947Z"/><path id="Vector_2" fill="#E15436" d="M13.4292 24.3008C15.718 20.7476 19.7404 18.2657 24.0245 18.3083C28.331 18.2578 32.4241 20.7659 34.5996 24.4384C33.5242 24.9743 32.4439 25.5038 31.3685 26.0418C29.4162 22.8008 25.8155 20.5773 22.0015 20.5471C18.7457 20.416 15.6576 22.0041 13.4292 24.3008V24.3008Z"/><path id="Vector_3" fill="#191918" d="M4 22.3985C10.663 25.7399 17.3315 29.0689 24 32.4009C30.6655 29.0694 37.334 25.7404 44 22.4034C43.9951 23.3422 43.9941 24.281 43.997 25.2198C37.3285 28.5496 30.6619 31.8831 23.997 35.2203C17.3334 31.8844 10.6685 28.5509 4.00247 25.2198C4.00247 24.278 4.00247 23.3382 4 22.3985Z"/><path id="Vector_4" fill="#84164D" d="M18.3013 26.7351C19.5296 25.0391 21.3161 23.5718 23.4891 23.4412C26.0293 23.1774 28.4141 24.7353 29.7077 26.8435C28.6353 27.3863 27.5545 27.9163 26.4816 28.4568C25.4795 26.9365 23.8889 25.6978 22.0193 25.5894C20.6707 25.4335 19.4063 26.0294 18.3013 26.7351V26.7351Z"/></g></g></svg>

<svg xmlns="http://www.w3.org/2000/svg" fill="none" aria-hidden="true" viewBox="0 0 48 48"><path fill="#F0A749" d="M16.751 14.595c4.709-2.219 10.414-2.088 15.085.175a17.385 17.385 0 0 1 7.684 7.227c-1.08.545-2.166 1.078-3.249 1.615a16.19 16.19 0 0 0-7.764-7.01c-4.313-1.884-9.464-1.829-13.678.31-2.357 1.135-4.311 2.939-5.927 4.974 1.804-3.148 4.545-5.768 7.85-7.291Z"/><path fill="#E15436" d="M13.43 24.3c2.288-3.552 6.31-6.034 10.595-5.992 4.306-.05 8.4 2.458 10.575 6.13-1.076.536-2.156 1.066-3.232 1.604-1.952-3.241-5.552-5.465-9.366-5.495-3.256-.131-6.344 1.457-8.573 3.754Z"/><path fill="#191918" d="M4 22.398c6.663 3.342 13.331 6.67 20 10.003 6.666-3.332 13.334-6.66 20-9.998-.005.94-.006 1.878-.003 2.817a20254.65 20254.65 0 0 0-20 10c-6.664-3.336-13.329-6.67-19.995-10 0-.942 0-1.882-.002-2.822Z"/><path fill="#84164D" d="M18.301 26.735c1.229-1.696 3.015-3.163 5.188-3.294 2.54-.264 4.925 1.294 6.219 3.402-1.073.543-2.153 1.073-3.226 1.614-1.002-1.52-2.593-2.76-4.463-2.868-1.348-.155-2.613.44-3.718 1.146Z"/></svg>
